<?xml version="1.0" encoding="UTF-8"?>
<map version="1.11" tiledversion="1.11.2" orientation="orthogonal" renderorder="right-down" width="30" height="12" tilewidth="40" tileheight="40" infinite="0" nextlayerid="7" nextobjectid="24">
 <editorsettings>
  <export target="Apartments.lua" format="lua"/>
 </editorsettings>
 <tileset firstgid="1" source="../tilesets/Hometown_exterior_tiles.tsx"/>
 <tileset firstgid="169" source="../tilesets/Hometown_exterior_objects.tsx"/>
 <layer id="1" name="Base" width="30" height="12">
  <data encoding="csv">
50,50,50,50,50,50,50,50,50,50,50,50,50,50,50,50,50,50,50,50,50,50,50,50,50,50,50,50,50,50,
50,50,50,50,50,50,50,50,50,50,50,50,50,50,50,50,50,50,50,50,50,50,50,50,50,50,50,50,50,50,
50,50,50,50,50,50,50,50,50,50,50,50,50,50,50,50,50,50,50,50,50,50,50,50,50,50,50,50,50,50,
50,50,50,50,50,50,50,50,50,50,50,50,50,50,50,50,50,50,50,50,50,50,50,50,50,50,50,50,50,50,
50,50,50,50,50,50,50,50,50,50,50,50,50,50,50,50,50,50,50,50,50,50,50,50,50,50,50,50,50,50,
50,50,50,50,50,50,50,50,50,50,50,50,50,50,50,50,50,50,50,50,50,50,50,50,50,50,50,50,50,50,
50,50,50,50,2684354574,50,50,50,2684354574,50,50,50,50,50,50,50,50,50,50,50,50,50,50,50,50,50,50,50,50,50,
50,50,50,50,50,50,50,50,50,50,50,50,50,50,50,50,50,50,50,50,50,50,50,50,50,50,50,50,50,50,
50,50,50,50,50,50,50,50,50,50,50,50,50,50,50,50,50,50,50,50,50,50,50,50,50,50,50,50,50,50,
50,50,50,50,50,50,50,50,50,50,50,50,50,50,50,50,50,50,50,50,50,50,50,50,50,50,50,50,50,50,
50,50,50,50,2684354574,50,50,50,2684354574,50,50,50,50,50,50,50,50,50,50,50,50,50,50,50,50,50,50,50,50,50,
50,50,50,50,50,50,50,50,50,50,50,50,50,50,50,50,50,50,50,50,50,50,50,50,50,50,50,50,50,50
</data>
 </layer>
 <layer id="6" name="Roads" width="30" height="12">
  <data encoding="csv">
0,0,0,0,21,2684354574,2684354574,2684354574,21,0,0,0,0,0,0,0,0,0,0,0,0,0,0,0,0,0,0,0,0,0,
0,0,0,0,21,2684354574,4,2684354574,21,0,0,0,0,0,0,0,0,0,0,0,0,0,0,0,0,0,0,0,0,0,
0,0,0,0,21,2684354574,2684354574,2684354574,21,0,0,0,0,0,0,0,0,0,0,0,0,0,0,0,0,0,0,0,0,0,
0,0,0,0,21,2684354574,4,2684354574,21,0,0,0,0,0,0,0,0,0,0,0,0,0,0,0,0,0,0,0,0,0,
0,0,0,0,21,2684354574,2684354574,2684354574,21,0,0,0,0,0,0,0,0,0,0,0,0,0,0,0,0,0,0,0,0,0,
0,0,0,0,19,2684354574,4,2684354574,19,0,0,0,0,0,0,0,0,0,0,0,0,0,0,0,0,0,0,0,0,0,
32,32,32,32,33,2684354574,2684354574,2684354574,31,32,32,32,32,32,32,32,32,32,32,32,32,32,32,32,32,32,32,32,32,32,
2684354574,2684354574,2684354574,2684354574,2684354574,2684354574,4,2684354574,2684354574,2684354574,2684354574,2684354574,2684354574,2684354574,2684354574,2684354574,2684354574,2684354574,2684354574,2684354574,2684354574,2684354574,2684354574,2684354574,2684354574,2684354574,2684354574,2684354574,2684354574,2684354574,
2684354574,5,2684354574,5,2684354574,5,2684354574,5,2684354574,5,2684354574,5,2684354574,5,2684354574,5,2684354574,5,2684354574,5,2684354574,5,2684354574,5,2684354574,5,2684354574,5,2684354574,5,
2684354574,2684354574,2684354574,2684354574,2684354574,2684354574,4,2684354574,2684354574,2684354574,2684354574,2684354574,2684354574,2684354574,2684354574,2684354574,2684354574,2684354574,2684354574,2684354574,2684354574,2684354574,2684354574,2684354574,2684354574,2684354574,2684354574,2684354574,2684354574,2684354574,
8,8,8,8,9,2684354574,2684354574,2684354574,7,8,8,8,8,8,8,8,8,8,8,8,8,8,8,8,8,8,8,8,8,8,
0,0,0,0,19,2684354574,4,2684354574,19,0,0,0,0,0,0,0,0,0,0,0,0,0,0,0,0,0,0,0,0,0
</data>
 </layer>
 <layer id="5" name="Buildings" width="30" height="12">
  <data encoding="csv">
0,0,0,0,0,0,0,0,0,4970,4971,4972,4973,4974,4975,4976,4977,0,4980,4981,4982,4983,4984,4985,4986,4989,4990,4991,4992,4993,
0,0,0,0,0,0,0,0,0,5030,5031,5032,5033,5034,5035,5036,5037,0,5040,5041,5042,5043,5044,5045,5046,5049,5050,5051,5052,5053,
0,0,0,0,0,0,0,0,0,5090,5091,5092,5093,5094,5095,5096,5097,0,5100,5101,5102,5103,5104,5105,5106,5109,5110,5111,5112,5113,
0,0,0,0,0,0,0,0,0,5150,5151,5152,5153,5154,5155,5156,5157,0,5160,5161,5162,5163,5164,5165,5166,5169,5170,5171,5172,5173,
0,0,0,0,0,0,0,0,0,5210,5211,5212,5213,5214,5215,5216,5217,0,5220,5221,5222,5223,5224,5225,5226,5229,5230,5231,5232,5233,
0,0,0,0,0,0,0,0,0,5270,5271,5272,5273,5274,5275,5276,5277,0,5280,5281,5282,5283,5284,5285,5286,5289,5290,5291,5292,5293,
0,0,0,0,0,0,0,0,0,5330,5331,5332,5333,5334,5335,5336,5337,0,5340,5341,5342,5343,5344,5345,5346,5349,5350,5351,5352,5353,
0,0,0,0,0,0,0,0,0,0,0,0,0,0,0,0,0,0,0,0,0,0,0,0,0,0,0,0,0,0,
0,0,0,0,0,0,0,0,0,0,0,0,0,0,0,0,0,0,0,0,0,0,0,0,0,0,0,0,0,0,
0,0,0,0,0,0,0,0,0,0,0,0,0,0,0,0,0,0,0,0,0,0,0,0,0,0,0,0,0,0,
0,0,0,0,0,0,0,0,0,0,0,0,0,0,0,0,0,0,0,0,0,0,0,0,0,0,0,0,0,0,
0,0,0,0,0,0,0,0,0,0,0,0,0,0,0,0,0,0,0,0,0,0,0,0,0,0,0,0,0,0
</data>
 </layer>
 <objectgroup color="#ff00ff" id="2" name="objects">
  <object id="1" name="transition" x="160" y="-40" width="200" height="40">
   <properties>
    <property name="map" value="Police_and_sans"/>
    <property name="marker" value="entry_from_apartments"/>
   </properties>
  </object>
  <object id="11" name="transition" x="-40" y="240" width="40" height="200">
   <properties>
    <property name="map" value="QCs_and_Asgore"/>
    <property name="marker" value="entry_from_apartments"/>
   </properties>
  </object>
  <object id="12" name="transition" x="160" y="480" width="200" height="40">
   <properties>
    <property name="map" value="Mayors_exterior"/>
    <property name="marker" value="entry_from_apartments"/>
   </properties>
  </object>
  <object id="21" name="script" x="400" y="240" width="80" height="198">
   <properties>
    <property name="cutscene" value="tenna.complex"/>
   </properties>
  </object>
  <object id="22" name="npc" x="560" y="320" width="40" height="40">
   <properties>
    <property name="actor" value="dummy"/>
   </properties>
  </object>
 </objectgroup>
 <objectgroup color="#7f00ff" id="3" name="markers">
  <object id="2" name="entry_from_police" x="260" y="40">
   <point/>
  </object>
  <object id="16" name="entry_from_QCs" x="40" y="340">
   <point/>
  </object>
  <object id="17" name="entry_from_mayors" x="260" y="440">
   <point/>
  </object>
  <object id="20" name="spawn" x="259" y="339">
   <point/>
  </object>
  <object id="23" name="knight_spawn" x="840" y="340">
   <point/>
  </object>
 </objectgroup>
 <objectgroup color="#0000ff" id="4" name="collision">
  <object id="3" x="0" y="-40" width="160" height="40"/>
  <object id="4" x="-40" y="0" width="40" height="240"/>
  <object id="5" x="-40" y="440" width="40" height="40"/>
  <object id="7" x="0" y="480" width="160" height="40"/>
  <object id="8" x="360" y="480" width="280" height="40"/>
  <object id="10" x="360" y="-40" width="280" height="40"/>
  <object id="13" x="640" y="480" width="560" height="40"/>
  <object id="14" x="1200" y="0" width="40" height="520"/>
  <object id="15" x="640" y="-40" width="600" height="40"/>
  <object id="18" x="400" y="0" width="280" height="240"/>
  <object id="19" x="720" y="0" width="520" height="240"/>
 </objectgroup>
</map>
