<?xml version="1.0" encoding="UTF-8"?>
<map version="1.11" tiledversion="1.11.2" orientation="orthogonal" renderorder="right-down" width="16" height="26" tilewidth="40" tileheight="40" infinite="0" nextlayerid="10" nextobjectid="31">
 <editorsettings>
  <export target="Bunker_surface.lua" format="lua"/>
 </editorsettings>
 <tileset firstgid="1" source="../tilesets/Hometown_exterior_tiles.tsx"/>
 <tileset firstgid="169" source="../tilesets/Hometown_exterior_objects.tsx"/>
 <layer id="1" name="Base" width="16" height="26">
  <data encoding="csv">
50,50,50,59,50,50,59,50,50,50,50,50,50,50,50,50,
50,50,50,59,50,50,59,50,50,50,50,50,50,50,50,50,
50,50,50,59,50,50,59,50,50,50,50,50,50,50,50,50,
50,50,59,59,50,50,59,50,50,50,50,50,50,50,50,50,
50,50,59,59,50,50,59,50,50,50,50,50,50,50,50,50,
50,50,50,59,50,50,59,59,50,50,50,50,50,50,50,50,
50,50,50,59,50,50,59,59,50,50,50,50,50,50,50,50,
50,50,59,59,50,50,59,50,50,50,50,50,50,50,50,50,
50,50,50,59,50,50,59,50,50,50,50,50,50,50,50,50,
50,50,50,60,50,50,59,50,50,50,50,50,50,50,50,50,
50,50,50,59,50,50,59,50,50,50,50,50,50,50,50,50,
50,50,50,59,50,50,59,50,50,50,50,50,50,50,50,50,
50,60,50,59,50,50,59,50,60,50,60,60,60,60,60,60,
71,6213,6214,6215,50,50,55,71,71,71,60,60,60,60,60,60,
50,6273,6274,6275,50,50,50,50,50,50,6222,6223,6224,6225,6226,6227,
50,6333,6334,6335,50,50,50,50,50,50,6282,6283,6284,6285,6286,6287,
50,50,50,55,50,50,50,50,50,50,6342,6343,6344,6345,6346,6347,
50,50,50,50,50,50,50,50,50,50,50,50,50,50,50,50,
50,50,50,50,50,50,50,50,50,50,50,50,50,55,50,50,
50,50,55,50,50,50,50,50,50,50,50,50,50,50,50,50,
50,50,50,50,50,50,50,50,50,50,50,50,50,50,50,50,
50,50,50,50,55,50,50,50,50,50,50,50,50,50,50,50,
50,50,50,50,50,50,50,50,50,50,50,50,55,50,50,50,
50,50,50,50,50,50,50,50,50,50,50,50,50,50,50,50,
50,50,50,50,50,50,50,50,50,50,50,50,50,50,50,50,
50,50,50,50,50,50,50,50,50,50,50,50,50,50,50,50
</data>
 </layer>
 <layer id="6" name="Trees" width="16" height="26">
  <data encoding="csv">
105,106,107,108,0,0,104,105,106,105,105,106,107,105,106,107,
105,106,107,108,0,0,104,105,106,105,106,105,106,105,106,107,
105,106,107,108,0,0,104,105,106,105,106,105,105,105,106,107,
105,106,107,108,0,0,104,105,105,105,106,105,105,105,106,107,
105,106,107,108,0,0,104,105,105,106,107,105,105,105,106,107,
105,106,107,108,0,0,104,105,105,106,107,105,106,105,106,107,
105,106,107,108,0,0,104,105,106,107,107,105,106,105,106,107,
105,106,107,108,0,0,104,105,106,107,107,106,107,105,106,107,
105,106,107,108,0,0,104,105,106,107,107,106,107,105,106,107,
105,106,107,108,0,0,104,105,106,107,105,106,107,107,105,106,
106,107,107,108,0,0,104,105,106,107,105,105,105,106,107,107,
105,106,107,108,0,0,104,105,106,105,106,105,106,105,106,107,
153,106,131,132,0,0,128,129,130,129,130,129,130,129,105,131,
106,165,141,144,0,0,140,141,142,141,142,141,142,141,128,106,
6212,0,0,0,0,0,0,0,0,0,0,0,0,0,0,6227,
6272,0,0,0,0,0,0,0,0,0,0,0,0,0,0,6287,
6332,0,0,0,0,0,0,0,0,0,0,0,0,0,0,6347,
6392,0,0,0,0,0,0,0,0,0,0,0,0,0,0,6407,
6452,0,0,0,0,0,0,0,0,0,0,0,0,0,0,6347,
6512,0,0,0,0,0,0,0,0,0,0,0,0,0,0,6407,
6572,0,0,0,0,0,0,0,0,0,0,0,0,0,0,6347,
6392,0,0,0,0,0,0,0,0,0,0,0,0,0,0,6407,
6452,0,0,0,0,0,0,0,0,0,0,0,0,0,0,6467,
6512,0,0,0,0,0,0,0,0,0,0,0,0,0,0,6347,
6572,0,0,0,0,0,0,0,0,0,0,0,0,0,0,6407,
6632,6633,6634,6643,6644,6645,6644,6643,6644,6645,6644,6643,6644,6645,6646,6647
</data>
 </layer>
 <layer id="9" name="Trees additional" width="16" height="26">
  <data encoding="csv">
0,0,0,0,0,0,0,0,0,0,0,0,0,0,0,0,
0,0,0,0,0,0,0,0,0,0,0,0,0,0,0,0,
0,0,0,0,0,0,0,0,0,0,0,0,0,0,0,0,
0,0,0,0,0,0,0,0,0,0,0,0,0,0,0,0,
0,0,0,0,0,0,0,0,0,0,0,0,0,0,0,0,
0,0,0,0,0,0,0,0,0,0,0,0,0,0,0,0,
0,0,0,0,0,0,0,0,0,0,0,0,0,0,0,0,
0,0,0,0,0,0,0,0,0,0,0,0,0,0,0,0,
0,0,0,0,0,0,0,0,0,0,0,0,0,0,0,0,
0,0,0,0,0,0,0,0,0,0,0,0,0,0,0,0,
0,0,0,0,0,0,0,0,0,0,0,0,0,0,0,0,
0,0,0,0,0,0,0,0,0,0,0,0,0,0,0,0,
0,0,0,0,0,0,0,0,0,0,0,0,0,0,0,0,
6152,6153,6154,0,0,0,0,0,0,0,0,0,0,6165,6166,6167,
0,0,0,0,0,0,0,0,0,0,0,0,0,0,0,0,
0,0,0,0,0,0,0,0,0,0,0,0,0,0,0,0,
0,0,0,0,0,0,0,0,0,0,0,0,0,0,0,0,
0,0,0,0,0,0,0,0,0,0,0,0,0,0,0,0,
0,0,0,0,0,0,0,0,0,0,0,0,0,0,0,0,
0,0,0,0,0,0,0,0,0,0,0,0,0,0,0,0,
0,0,0,0,0,0,0,0,0,0,0,0,0,0,0,0,
0,0,0,0,0,0,0,0,0,0,0,0,0,0,0,0,
0,0,0,0,0,0,0,0,0,0,0,0,0,0,0,0,
0,0,0,0,0,0,0,0,0,0,0,0,0,0,0,0,
0,0,0,0,0,0,0,0,0,0,0,0,0,0,0,0,
0,0,0,0,0,0,0,0,0,0,0,0,0,0,0,0
</data>
 </layer>
 <layer id="8" name="Bunker" width="16" height="26">
  <data encoding="csv">
0,0,0,0,0,0,0,0,0,0,0,0,0,0,0,0,
0,0,0,0,0,0,0,0,0,0,0,0,0,0,0,0,
0,0,0,0,0,0,0,0,0,0,0,0,0,0,0,0,
0,0,0,0,0,0,0,0,0,0,0,0,0,0,0,0,
0,0,0,0,0,0,0,0,0,0,0,0,0,0,0,0,
0,0,0,0,0,0,0,0,0,0,0,0,0,0,0,0,
0,0,0,0,0,0,0,0,0,0,0,0,0,0,0,0,
0,0,0,0,0,0,0,0,0,0,0,0,0,0,0,0,
0,0,0,0,0,0,0,0,0,0,0,0,0,0,0,0,
0,0,0,0,0,0,0,0,0,0,0,0,0,0,0,0,
0,0,0,0,0,0,0,0,0,0,0,0,0,0,0,0,
0,0,0,0,0,0,0,0,0,0,0,0,0,0,0,0,
0,0,0,0,0,0,0,0,0,0,0,0,0,0,0,0,
0,0,0,0,0,0,0,0,0,0,0,0,0,0,0,0,
0,0,0,0,0,0,0,0,0,0,0,0,0,0,0,0,
0,0,0,0,0,6805,6806,6807,6808,6809,6810,6811,6812,6813,6814,0,
0,0,0,0,0,6865,6866,6867,6868,6869,6870,6871,6872,6873,6874,0,
0,0,0,0,0,6925,6926,6927,6928,6929,6930,6931,6932,6933,6934,0,
0,0,0,0,0,6985,6986,6987,6988,6989,6990,6991,6992,6993,6994,0,
0,0,0,0,0,7045,7046,7047,7048,7049,7050,7051,7052,7053,7054,0,
0,0,0,0,0,7105,7106,7107,7108,7109,7110,7111,7112,7113,7114,0,
0,0,0,0,0,0,0,0,0,0,0,0,0,0,0,0,
0,0,0,0,0,0,0,0,0,0,0,0,0,0,0,0,
0,0,0,0,0,0,0,0,0,0,0,0,0,0,0,0,
0,0,0,0,0,0,0,0,0,0,0,0,0,0,0,0,
0,0,0,0,0,0,0,0,0,0,0,0,0,0,0,0
</data>
 </layer>
 <objectgroup color="#7f00ff" id="2" name="markers">
  <object id="1" name="spawn" x="479.5" y="940.5">
   <point/>
  </object>
  <object id="24" name="entry" x="200" y="40">
   <point/>
  </object>
 </objectgroup>
 <objectgroup color="#ff00ff" id="4" name="objects">
  <object id="6" name="savepoint" x="560.5" y="941">
   <point/>
  </object>
  <object id="22" name="transition" x="160" y="-40" width="80" height="40">
   <properties>
    <property name="map" value="School_exterior"/>
    <property name="marker" value="entry_from_bunker"/>
   </properties>
  </object>
 </objectgroup>
 <objectgroup color="#0000ff" id="3" name="collision">
  <object id="2" x="0" y="1040" width="640" height="40"/>
  <object id="3" x="640" y="560" width="40" height="520"/>
  <object id="5" x="-40" y="560" width="40" height="520"/>
  <object id="7" x="0" y="520" width="120" height="40"/>
  <object id="10" x="280" y="520" width="360" height="40"/>
  <object id="11" x="120" y="0" width="40" height="560"/>
  <object id="12" x="240" y="0" width="40" height="560"/>
  <object id="18" x="200" y="760" width="400" height="80"/>
  <object id="19" x="240" y="680" width="320" height="80"/>
  <object id="20" x="280" y="640" width="280" height="40"/>
  <object id="25" x="280" y="560" width="320" height="80"/>
  <object id="26" x="221.818" y="760.364">
   <polygon points="0,0 18,-40.9091 18.1818,-0.363636"/>
  </object>
  <object id="27" x="263.091" y="680.364">
   <polygon points="0,0 16.3636,-24.9091 16.9091,-0.363636"/>
  </object>
  <object id="28" x="600" y="840" width="40" height="200"/>
  <object id="29" x="0" y="1000" width="600" height="40"/>
  <object id="30" x="0" y="560" width="40" height="440"/>
 </objectgroup>
</map>
