<?xml version="1.0" encoding="UTF-8"?>
<map version="1.11" tiledversion="1.11.2" orientation="orthogonal" renderorder="right-down" width="16" height="18" tilewidth="40" tileheight="40" infinite="0" nextlayerid="8" nextobjectid="21">
 <editorsettings>
  <export target="Church_exterior.lua" format="lua"/>
 </editorsettings>
 <tileset firstgid="1" source="../tilesets/Hometown_exterior_tiles.tsx"/>
 <tileset firstgid="169" source="../tilesets/Hometown_exterior_objects.tsx"/>
 <layer id="1" name="Base" width="16" height="18">
  <data encoding="csv">
59,59,59,59,59,59,59,59,59,59,59,50,50,50,50,50,
59,59,59,59,59,59,59,59,59,59,59,50,50,50,50,50,
59,59,59,59,59,59,59,59,59,59,59,50,50,50,50,50,
59,59,59,59,59,59,59,59,59,59,59,50,50,50,50,50,
59,59,59,59,59,59,59,59,59,59,59,50,50,50,50,50,
59,59,59,59,59,59,59,59,59,59,59,50,50,50,50,50,
59,59,59,59,59,59,59,59,59,59,59,50,50,50,50,50,
59,59,59,59,59,59,59,59,59,59,59,50,50,50,50,50,
59,59,59,59,59,59,59,59,59,59,59,50,50,50,50,50,
59,59,59,59,59,59,59,59,59,59,59,50,50,50,50,50,
59,59,59,59,59,59,59,59,59,59,59,50,50,50,50,50,
50,50,50,50,50,50,50,50,50,50,50,50,50,50,50,50,
50,50,50,50,50,50,50,50,50,50,50,50,50,50,50,50,
50,50,50,50,50,50,50,50,50,50,50,50,50,50,50,50,
50,50,50,50,50,50,50,50,50,50,50,50,50,50,50,50,
50,50,50,50,50,50,50,50,50,50,50,50,50,50,50,50,
50,50,50,50,50,50,50,50,50,50,50,50,50,50,50,50,
50,50,50,50,50,50,50,50,50,50,50,50,50,50,50,50
</data>
 </layer>
 <layer id="5" name="Roads" width="16" height="18">
  <data encoding="csv">
0,0,0,0,0,0,0,0,0,0,0,0,0,0,0,0,
0,0,0,0,0,0,0,0,0,0,0,0,0,0,0,0,
0,0,0,0,0,0,0,0,0,0,0,0,0,0,0,0,
0,0,0,0,0,0,0,0,0,0,0,0,0,0,0,0,
0,0,0,0,0,0,0,0,0,0,0,0,0,0,0,0,
0,0,0,0,0,0,0,0,0,0,0,0,0,0,0,0,
0,0,0,0,0,0,0,0,0,0,0,0,0,0,0,0,
0,0,0,0,0,0,0,0,0,0,0,0,0,0,0,0,
0,0,0,0,0,0,0,0,0,0,0,0,0,0,0,0,
0,0,0,0,0,0,0,0,0,0,0,0,0,0,0,0,
0,0,0,0,0,0,0,0,0,0,0,0,0,0,0,0,
0,16,17,17,17,17,17,17,17,17,17,17,17,17,17,17,
0,19,14,14,14,14,14,14,14,14,14,14,14,14,14,14,
0,19,14,5,14,5,14,5,14,5,14,5,14,5,14,5,
0,19,14,14,14,14,14,14,14,14,14,14,14,14,14,14,
0,28,8,8,8,8,8,8,8,8,8,8,8,8,8,29,
0,0,0,0,0,0,0,0,0,0,0,0,0,0,0,0,
0,0,0,0,0,0,0,0,0,0,0,0,0,0,0,0
</data>
 </layer>
 <layer id="4" name="Trees" width="16" height="18">
  <data encoding="csv">
106,106,106,107,105,106,107,106,106,107,108,0,0,0,0,0,
106,107,106,107,106,106,106,106,106,107,108,0,0,0,0,0,
107,107,106,106,106,107,106,106,106,107,108,0,0,0,0,0,
106,107,106,106,107,0,106,106,106,107,108,0,0,0,0,0,
106,107,107,106,107,0,106,106,106,105,108,0,0,0,0,0,
106,107,107,0,0,0,106,107,106,105,108,0,0,0,0,0,
106,107,0,0,0,0,0,0,0,105,108,0,0,0,0,0,
106,107,0,0,0,0,0,0,0,105,108,0,0,0,0,0,
106,107,0,0,0,0,0,0,0,105,108,0,0,0,0,0,
131,132,0,0,0,0,0,0,0,131,132,0,0,0,0,0,
108,0,0,0,0,0,0,0,0,143,144,0,0,0,0,0,
108,0,0,0,0,0,0,0,0,0,0,0,0,0,0,0,
108,0,0,0,0,0,0,0,0,0,0,0,0,0,0,0,
108,0,0,0,0,0,0,0,0,0,0,0,0,0,0,0,
108,0,0,0,0,0,0,0,0,0,0,0,0,0,0,0,
108,0,0,0,0,0,0,0,0,0,0,0,0,0,0,0,
108,0,0,0,0,0,0,0,0,0,0,0,0,0,0,0,
93,94,93,94,93,94,93,94,93,94,93,94,93,94,93,94
</data>
 </layer>
 <layer id="7" name="Church" width="16" height="18">
  <data encoding="csv">
0,7670,7671,7672,7673,7674,7675,7676,7677,7678,0,0,0,0,0,0,
0,7730,7731,7732,7733,7734,7735,7736,7737,7738,0,0,0,0,0,0,
0,7790,7791,7792,7793,7794,7795,7796,7797,7798,0,0,0,0,0,0,
0,7850,7851,7852,7853,7854,7855,7856,7857,7858,0,0,0,0,0,0,
0,7910,7911,7912,7913,7914,7915,7916,7917,7918,0,0,0,0,0,0,
0,7970,7971,7972,7973,7974,7975,7976,7977,7978,0,0,0,0,0,0,
0,8030,8031,8032,8033,8034,8035,8036,8037,8038,0,0,0,0,0,0,
0,8090,8091,8092,8093,8094,8095,8096,8097,8098,0,0,0,0,0,0,
0,8150,8151,8152,8153,8154,8155,8156,8157,8158,0,0,0,0,0,0,
0,8210,8211,8212,8213,8214,8215,8216,8217,8218,0,0,0,0,0,0,
0,8270,8271,8272,8273,8274,8275,8276,8277,8278,0,0,0,0,0,0,
0,0,0,0,0,0,0,0,0,0,0,0,0,0,0,0,
0,0,0,0,0,0,0,0,0,0,0,0,0,0,0,0,
0,0,0,0,0,0,0,0,0,0,0,0,0,0,0,0,
0,0,0,0,0,0,0,0,0,0,0,0,0,0,0,0,
0,0,0,0,0,0,0,0,0,0,0,0,0,0,0,0,
0,0,0,0,0,0,0,0,0,0,0,0,0,0,0,0,
0,0,0,0,0,0,0,0,0,0,0,0,0,0,0,0
</data>
 </layer>
 <objectgroup color="#7f00ff" id="2" name="markers">
  <object id="1" name="entry_from_school" x="600" y="540">
   <point/>
  </object>
  <object id="18" name="entry_from_graveyard" x="540" y="40">
   <point/>
  </object>
 </objectgroup>
 <objectgroup color="#ff00ff" id="3" name="objects">
  <object id="4" name="transition" x="640" y="440" width="40" height="240">
   <properties>
    <property name="map" value="School_exterior"/>
    <property name="marker" value="entry_from_church"/>
   </properties>
  </object>
  <object id="17" name="transition" x="440" y="-40" width="200" height="40">
   <properties>
    <property name="map" value="Graveyard"/>
    <property name="marker" value="entry_from_church"/>
   </properties>
  </object>
 </objectgroup>
 <objectgroup color="#0000ff" id="6" name="collision">
  <object id="6" x="0" y="680" width="640" height="40"/>
  <object id="9" x="640" y="200" width="40" height="240"/>
  <object id="10" x="-40" y="0" width="40" height="680"/>
  <object id="11" x="640" y="0" width="40" height="240"/>
  <object id="12" x="280" y="0" width="80" height="440"/>
  <object id="13" x="0" y="0" width="160" height="440"/>
  <object id="14" x="160" y="40" width="120" height="320"/>
  <object id="16" x="120" y="-40" width="320" height="40"/>
  <object id="19" x="0" y="440" width="40" height="240"/>
  <object id="20" x="360" y="0" width="80" height="440"/>
 </objectgroup>
</map>
