<?xml version="1.0" encoding="UTF-8"?>
<map version="1.11" tiledversion="1.11.2" orientation="orthogonal" renderorder="right-down" width="16" height="12" tilewidth="40" tileheight="40" infinite="0" nextlayerid="7" nextobjectid="16">
 <editorsettings>
  <export target="Festival_pathway.lua" format="lua"/>
 </editorsettings>
 <tileset firstgid="1" source="../tilesets/Hometown_exterior_tiles.tsx"/>
 <tileset firstgid="169" source="../tilesets/Hometown_exterior_objects.tsx"/>
 <layer id="1" name="Base" width="16" height="12">
  <data encoding="csv">
50,50,50,50,50,59,50,50,50,50,59,59,59,59,59,59,
50,50,50,50,50,59,50,50,50,50,59,59,59,59,59,59,
50,50,50,50,50,59,50,50,50,50,59,59,59,59,59,59,
50,50,50,50,59,59,50,50,50,50,59,59,59,59,59,59,
59,59,59,59,59,50,50,50,50,50,50,59,59,59,59,59,
59,59,59,59,59,50,50,50,50,50,50,59,59,59,59,59,
32,32,32,32,32,32,32,32,32,32,32,32,32,32,32,32,
14,14,14,14,14,14,14,14,14,14,14,14,14,14,14,14,
5,5,5,5,5,5,5,5,5,5,5,5,5,5,5,5,
14,14,14,14,14,14,14,14,14,14,14,14,14,14,14,14,
8,8,8,8,8,8,8,8,8,8,8,8,8,8,8,8,
50,50,50,50,50,50,50,50,50,50,50,50,50,50,50,50
</data>
 </layer>
 <layer id="2" name="Signs" width="16" height="12">
  <data encoding="csv">
0,0,0,0,0,0,0,0,0,0,0,0,0,0,0,0,
0,0,0,0,0,0,0,0,0,0,0,0,0,0,0,0,
0,0,0,0,0,0,0,0,0,0,0,0,0,0,0,0,
0,0,0,0,0,0,0,0,0,0,0,0,0,0,0,0,
0,0,0,0,2147486662,2147486661,0,0,0,0,3013,3014,0,0,0,0,
0,0,0,0,2147486722,2147486721,0,0,0,0,3073,3074,0,0,0,0,
0,0,0,0,0,0,0,0,0,0,0,0,0,0,0,0,
0,0,0,0,0,0,0,0,0,0,0,0,0,0,0,0,
0,0,0,0,0,0,0,0,0,0,0,0,0,0,0,0,
0,0,0,0,0,0,0,0,0,0,0,0,0,0,0,0,
0,0,0,0,0,0,0,0,0,0,0,0,0,0,0,0,
0,0,0,0,0,0,0,0,0,0,0,0,0,0,0,0
</data>
 </layer>
 <layer id="6" name="Trees" width="16" height="12">
  <data encoding="csv">
105,106,105,106,107,108,0,0,0,0,104,105,106,107,106,107,
105,106,105,106,107,108,0,0,0,0,104,105,106,107,106,107,
105,106,105,106,107,132,0,0,0,0,128,105,106,105,106,107,
105,106,105,106,107,144,0,0,0,0,140,105,106,107,106,107,
130,129,130,131,132,0,0,0,0,0,0,128,129,130,131,130,
142,141,142,143,144,0,0,0,0,0,0,140,141,142,143,142,
0,0,0,0,0,0,0,0,0,0,0,0,0,0,0,0,
0,0,0,0,0,0,0,0,0,0,0,0,0,0,0,0,
0,0,0,0,0,0,0,0,0,0,0,0,0,0,0,0,
0,0,0,0,0,0,0,0,0,0,0,0,0,0,0,0,
0,0,0,0,0,0,0,0,0,0,0,0,0,0,0,0,
0,0,0,0,0,0,0,0,0,0,0,0,0,0,0,0
</data>
 </layer>
 <objectgroup color="#ff00ff" id="3" name="objects">
  <object id="7" name="transition" x="-40" y="240" width="40" height="200">
   <properties>
    <property name="map" value="Home_exterior"/>
    <property name="marker" value="entry_from_festival_pathway"/>
   </properties>
  </object>
  <object id="8" name="transition" x="640" y="240" width="40" height="200">
   <properties>
    <property name="map" value="Police_and_sans"/>
    <property name="marker" value="entry_from_festival_pathway"/>
   </properties>
  </object>
 </objectgroup>
 <objectgroup color="#0000ff" id="4" name="collision">
  <object id="1" x="-40" y="440" width="40" height="40"/>
  <object id="2" x="-40" y="480" width="600" height="40"/>
  <object id="3" x="520" y="480" width="160" height="40"/>
  <object id="4" x="640" y="440" width="40" height="40"/>
  <object id="5" x="640" y="0" width="40" height="240"/>
  <object id="6" x="-40" y="0" width="40" height="240"/>
  <object id="10" x="0" y="0" width="200" height="240"/>
  <object id="11" x="200" y="0" width="40" height="120"/>
  <object id="12" x="400" y="0" width="40" height="120"/>
  <object id="13" x="440" y="0" width="200" height="240"/>
  <object id="15" x="240" y="-40" width="160" height="40"/>
 </objectgroup>
 <objectgroup color="#7f00ff" id="5" name="markers">
  <object id="9" name="entry_from_home" x="40" y="340">
   <point/>
  </object>
  <object id="14" name="entry_from_police" x="600" y="340">
   <point/>
  </object>
 </objectgroup>
</map>
