<?xml version="1.0" encoding="UTF-8"?>
<map version="1.11" tiledversion="1.11.2" orientation="orthogonal" renderorder="right-down" width="16" height="12" tilewidth="40" tileheight="40" infinite="0" nextlayerid="7" nextobjectid="28">
 <editorsettings>
  <export target="Graveyard.lua" format="lua"/>
 </editorsettings>
 <tileset firstgid="1" source="../tilesets/Hometown_exterior_tiles.tsx"/>
 <tileset firstgid="169" source="../tilesets/Hometown_exterior_objects.tsx"/>
 <layer id="1" name="Base" width="16" height="12">
  <data encoding="csv">
59,59,59,59,59,59,59,59,59,59,59,59,59,59,59,59,
59,42,43,50,50,50,50,50,50,50,50,50,50,50,50,50,
59,52,50,50,50,50,50,50,50,50,50,50,50,50,50,50,
59,52,50,50,50,50,50,50,50,50,50,50,50,50,50,50,
59,52,50,50,50,50,50,50,50,50,50,50,50,50,50,50,
59,52,50,50,50,50,50,50,50,50,50,50,50,50,50,50,
59,52,50,50,50,50,50,50,50,50,50,50,50,50,50,50,
59,52,50,50,50,50,50,50,50,50,50,50,50,50,50,50,
59,52,50,50,50,50,50,50,50,50,50,50,50,50,50,50,
59,52,50,50,50,50,50,50,50,50,50,50,50,50,50,50,
59,52,50,50,50,50,50,50,50,50,50,50,50,50,50,50,
50,50,50,50,50,50,50,50,50,50,50,50,50,50,50,50
</data>
 </layer>
 <layer id="6" name="Trees" width="16" height="12">
  <data encoding="csv">
108,141,142,141,142,141,142,141,142,141,142,141,142,141,142,143,
108,0,0,0,0,0,0,0,0,0,0,0,0,0,0,0,
108,0,0,0,0,0,0,0,0,0,0,0,0,0,0,0,
108,0,0,0,0,0,0,0,0,0,0,0,0,0,0,0,
108,0,0,0,0,0,0,0,0,0,0,0,0,0,0,0,
108,0,0,0,0,0,0,0,0,0,0,0,0,0,0,0,
108,0,0,0,0,0,0,0,0,0,0,0,0,0,0,0,
108,0,0,0,0,0,0,0,0,0,0,0,0,0,0,0,
108,0,0,0,0,0,0,0,0,0,0,0,0,0,0,0,
108,0,0,0,0,0,0,0,0,0,0,0,0,0,0,0,
108,0,0,0,0,0,0,0,0,0,0,0,0,0,0,0,
6632,6633,6634,6635,6636,6637,6638,6639,6640,6641,6642,0,0,0,0,0
</data>
 </layer>
 <layer id="2" name="Graves" width="16" height="12">
  <data encoding="csv">
0,0,8836,8837,8838,8839,8840,8841,8842,8843,8845,8846,8847,8848,8849,8850,
0,0,8896,8897,8898,8899,8900,8901,8902,8903,8905,8906,8907,8908,8909,8910,
0,0,8956,8957,8958,8959,8960,8961,8962,8963,8965,8966,8967,8968,8969,8970,
0,0,9016,9017,9018,9019,9020,9021,9022,9023,9025,9026,9027,9028,9029,9030,
0,0,9076,9077,9078,9079,9080,9081,9082,0,9085,9086,9087,9088,9089,9090,
0,0,0,0,0,0,0,0,0,0,0,0,0,0,0,0,
0,0,0,0,0,0,0,0,0,0,0,0,0,0,0,0,
0,0,0,0,0,0,0,0,0,0,0,0,0,0,0,0,
0,0,0,0,0,0,0,0,0,0,0,0,0,0,0,0,
0,0,0,0,0,0,0,0,0,0,0,0,0,0,0,0,
0,0,0,0,0,0,0,0,0,0,0,0,0,0,0,0,
0,0,0,0,0,0,0,0,0,0,0,0,0,0,0,0
</data>
 </layer>
 <objectgroup color="#0000ff" id="3" name="collision">
  <object id="1" x="120.667" y="175.333" width="223.273" height="24.6615"/>
  <object id="2" x="406.727" y="177.333" width="233.273" height="22.6667"/>
  <object id="4" x="110.011" y="37" width="10.6447" height="162.997"/>
  <object id="6" x="405.667" y="40" width="62" height="65.6667"/>
  <object id="7" x="520" y="40" width="80" height="66"/>
  <object id="9" x="158" y="39.6739" width="71.9091" height="66.3125"/>
  <object id="10" x="272" y="39.9844" width="82" height="74"/>
  <object id="11" x="110.111" y="44.5" width="529.889" height="15.25"/>
  <object id="12" x="629.75" y="61" width="10.25" height="139.5"/>
  <object id="17" x="640" y="0" width="40" height="480"/>
  <object id="18" x="0" y="480" width="440" height="40"/>
  <object id="19" x="-40" y="0" width="40" height="480"/>
  <object id="20" x="110.018" y="0" width="529.982" height="40"/>
  <object id="22" x="0" y="0" width="34" height="480"/>
  <object id="23" x="33.9375" y="474" width="405.938" height="7.125"/>
  <object id="27" x="0" y="0" width="120" height="40"/>
 </objectgroup>
 <objectgroup color="#7f00ff" id="4" name="markers">
  <object id="13" name="entry_from_church" x="540" y="457">
   <point/>
  </object>
  <object id="16" name="spawn" x="160" y="400">
   <point/>
  </object>
 </objectgroup>
 <objectgroup color="#ff00ff" id="5" name="objects">
  <object id="14" name="transition" x="440" y="480" width="200" height="40">
   <properties>
    <property name="map" value="Church_exterior"/>
    <property name="marker" value="entry_from_graveyard"/>
   </properties>
  </object>
  <object id="15" name="savepoint" x="160" y="320">
   <point/>
  </object>
 </objectgroup>
</map>
