<?xml version="1.0" encoding="UTF-8"?>
<map version="1.11" tiledversion="1.11.2" orientation="orthogonal" renderorder="right-down" width="16" height="17" tilewidth="40" tileheight="40" infinite="0" nextlayerid="8" nextobjectid="13">
 <editorsettings>
  <export target="Home_exterior.lua" format="lua"/>
 </editorsettings>
 <tileset firstgid="1" source="../tilesets/Hometown_exterior_tiles.tsx"/>
 <tileset firstgid="169" source="../tilesets/Hometown_exterior_objects.tsx"/>
 <layer id="1" name="Base" width="16" height="17">
  <data encoding="csv">
59,59,59,59,59,59,59,59,59,59,59,59,59,59,59,59,
59,59,59,59,50,50,50,50,59,59,59,59,50,59,59,59,
59,59,50,50,50,50,50,50,50,59,59,59,59,59,59,59,
59,59,50,50,50,50,50,50,50,50,59,59,59,59,59,59,
59,59,50,50,50,50,50,50,50,50,59,59,59,50,50,59,
59,59,50,50,50,50,50,50,50,50,59,59,50,59,59,59,
59,59,50,50,50,50,50,50,50,50,59,59,59,59,50,59,
59,59,50,50,50,50,50,50,50,50,59,59,59,59,59,59,
59,59,50,50,50,50,50,50,50,50,59,59,59,59,59,59,
59,59,59,59,59,59,59,59,59,59,59,59,59,59,59,59,
59,50,50,50,50,50,50,50,50,50,50,50,50,50,50,50,
59,50,50,50,50,50,50,50,50,50,50,50,50,50,50,50,
59,50,50,50,50,50,50,50,50,50,50,50,50,50,50,50,
59,50,50,50,50,50,50,50,50,50,50,50,50,50,50,50,
59,50,50,50,50,50,50,50,50,50,50,50,50,50,50,50,
59,50,50,50,50,50,50,50,50,50,50,50,50,50,50,50,
59,50,50,50,50,50,50,50,50,50,50,50,50,50,50,50
</data>
 </layer>
 <layer id="7" name="Roads" width="16" height="17">
  <data encoding="csv">
0,0,0,0,0,0,0,0,0,0,0,0,0,0,0,0,
0,0,0,0,0,0,0,0,0,0,0,0,0,0,0,0,
0,0,0,0,0,0,0,0,0,0,0,0,0,0,0,0,
0,0,0,0,0,0,0,0,0,0,0,0,0,0,0,0,
0,0,0,0,0,0,0,0,0,0,0,0,0,0,0,0,
0,0,0,0,0,0,0,0,0,0,0,0,0,0,0,0,
0,0,0,0,0,0,0,0,0,0,0,0,0,0,0,0,
0,0,0,0,0,0,0,0,0,0,0,0,0,0,0,0,
0,0,0,0,0,0,0,0,0,0,0,0,0,0,0,0,
0,0,0,0,0,0,0,0,0,0,0,0,0,0,0,0,
0,0,0,0,0,0,0,0,0,0,0,0,0,0,0,0,
0,7,17,17,17,17,17,17,17,17,17,17,17,17,17,17,
0,19,14,14,14,14,14,14,14,14,14,14,14,14,14,14,
0,19,14,5,14,5,14,5,14,5,14,5,14,5,14,5,
0,19,14,14,14,14,14,14,14,14,14,14,14,14,14,14,
0,28,29,29,29,29,29,29,29,29,29,29,29,29,29,29,
0,0,0,0,0,0,0,0,0,0,0,0,0,0,0,0
</data>
 </layer>
 <layer id="3" name="Trees" width="16" height="17">
  <data encoding="csv">
108,0,0,0,0,0,0,0,0,0,0,104,105,106,107,108,
108,0,0,0,0,0,0,0,0,0,0,104,105,106,107,108,
108,0,0,0,107,0,0,0,0,0,0,104,105,106,107,108,
108,0,0,0,0,0,0,0,0,0,0,104,105,106,107,108,
108,0,0,0,0,0,0,0,0,0,0,104,105,106,107,108,
108,0,0,0,0,0,0,0,0,0,0,104,105,106,107,108,
108,0,0,0,0,0,0,0,0,0,0,104,105,106,107,108,
108,0,0,0,0,0,0,0,0,0,0,104,105,106,107,108,
108,0,0,0,0,0,0,0,0,0,0,128,129,130,131,132,
108,0,0,0,0,0,0,0,0,0,0,140,141,142,143,144,
108,0,0,0,0,0,0,0,0,0,0,0,0,0,0,0,
108,0,0,0,0,0,0,0,0,0,0,0,0,0,0,0,
108,0,0,0,0,0,0,0,0,0,0,0,0,0,0,0,
108,0,0,0,0,0,0,0,0,0,0,0,0,0,0,0,
108,0,0,0,0,0,0,0,0,0,0,0,0,0,0,0,
108,0,0,0,0,0,0,0,0,0,0,0,0,0,0,0,
108,0,0,0,0,0,0,0,0,0,0,0,0,0,0,0
</data>
 </layer>
 <layer id="2" name="Home" width="16" height="17">
  <data encoding="csv">
417,418,419,420,421,422,423,424,425,426,427,0,0,0,0,0,
477,478,479,480,481,482,483,484,485,486,487,0,0,0,0,0,
537,538,539,540,541,542,543,544,545,546,547,0,0,0,0,0,
597,598,599,600,601,602,603,604,605,606,607,0,0,0,0,0,
657,658,659,660,661,662,663,664,665,666,667,0,0,0,0,0,
717,718,719,720,721,722,723,724,725,726,727,0,0,0,0,0,
777,778,779,780,781,782,783,784,785,786,787,0,0,0,0,0,
837,838,839,840,841,842,843,844,845,846,847,0,0,0,0,0,
897,898,899,900,901,902,903,904,905,906,907,0,0,0,0,0,
957,958,959,960,961,962,963,964,965,966,967,0,0,0,0,0,
1017,1018,1019,1020,1021,1022,1023,1024,1025,1026,1027,0,0,0,0,0,
0,0,0,0,0,0,0,0,0,0,0,0,0,0,0,0,
0,0,0,0,0,0,0,0,0,0,0,0,0,0,0,0,
0,0,0,0,0,0,0,0,0,0,0,0,0,0,0,0,
0,0,0,0,0,0,0,0,0,0,0,0,0,0,0,0,
0,0,0,0,0,0,0,0,0,0,0,0,0,0,0,0,
0,0,0,0,0,0,0,0,0,0,0,0,0,0,0,0
</data>
 </layer>
 <objectgroup color="#7f00ff" id="4" name="markers">
  <object id="12" name="entry_from_festival_pathway" x="600" y="540">
   <point/>
  </object>
 </objectgroup>
 <objectgroup color="#0000ff" id="5" name="collision">
  <object id="2" x="0" y="360" width="40" height="320"/>
  <object id="3" x="0" y="-40" width="640" height="400"/>
  <object id="4" x="440" y="360" width="200" height="40"/>
  <object id="5" x="59.6875" y="357.875" width="126.375" height="12.25"/>
  <object id="6" x="183.938" y="365.063" width="90.0625" height="18.8125"/>
  <object id="7" x="340.25" y="359.5" width="85.75" height="23.75"/>
  <object id="9" x="120" y="680" width="520" height="40"/>
  <object id="10" x="0" y="680" width="160" height="40"/>
 </objectgroup>
 <objectgroup color="#ff00ff" id="6" name="objects">
  <object id="11" name="transition" x="640" y="400" width="40" height="280">
   <properties>
    <property name="map" value="Festival_pathway"/>
    <property name="marker" value="entry_from_home"/>
   </properties>
  </object>
 </objectgroup>
</map>
