<?xml version="1.0" encoding="UTF-8"?>
<map version="1.11" tiledversion="1.11.2" orientation="orthogonal" renderorder="right-down" width="24" height="16" tilewidth="40" tileheight="40" infinite="0" nextlayerid="7" nextobjectid="15">
 <editorsettings>
  <export target="Mayors_exterior.lua" format="lua"/>
 </editorsettings>
 <tileset firstgid="1" source="../tilesets/Hometown_exterior_tiles.tsx"/>
 <tileset firstgid="169" source="../tilesets/Hometown_exterior_objects.tsx"/>
 <layer id="1" name="Base" width="24" height="16">
  <data encoding="csv">
50,50,50,50,50,50,50,50,50,50,50,50,50,50,50,50,50,50,50,50,50,50,50,50,
50,50,50,50,50,50,50,50,50,50,50,50,50,50,50,50,50,50,50,50,50,50,50,50,
50,50,50,50,50,50,50,50,50,50,50,50,50,50,50,50,50,50,50,50,50,50,50,50,
50,50,50,50,50,50,50,50,50,50,50,50,50,50,50,50,50,50,50,50,50,50,50,50,
50,50,50,50,50,50,50,50,50,50,50,50,50,50,50,50,50,50,50,50,50,50,50,50,
50,50,50,50,50,50,50,50,50,50,50,50,50,50,50,50,50,50,50,50,50,50,50,50,
50,50,50,50,50,50,50,50,50,50,50,50,50,50,50,50,50,50,50,50,50,50,50,50,
50,50,50,50,50,50,50,50,50,50,50,50,50,50,50,50,50,50,50,50,50,50,50,50,
50,50,50,50,50,50,50,50,50,50,50,50,50,50,50,50,50,50,50,50,50,50,50,50,
50,50,50,50,14,50,50,50,14,50,50,50,50,50,50,50,50,50,50,50,50,50,50,50,
50,50,50,50,50,50,50,50,50,50,50,50,50,50,50,50,50,50,50,50,50,50,50,50,
50,50,50,50,50,50,50,50,50,50,50,50,50,50,50,50,50,50,50,50,50,50,50,50,
50,50,50,50,50,50,50,50,50,50,50,50,50,50,50,50,50,50,50,50,50,50,50,50,
50,50,50,50,50,50,50,50,50,50,50,50,50,50,50,50,50,50,50,50,50,50,50,50,
50,50,50,50,50,50,50,50,50,50,50,50,50,50,50,50,50,50,50,50,50,50,50,50,
50,50,50,50,50,50,50,50,50,50,50,50,50,50,50,50,50,50,50,50,50,50,50,50
</data>
 </layer>
 <layer id="5" name="Roads" width="24" height="16">
  <properties>
   <property name="map" value="Apartments"/>
  </properties>
  <data encoding="csv">
0,0,0,0,19,14,4,14,19,0,0,0,0,0,0,0,0,0,0,0,0,0,0,0,
0,0,0,0,19,14,14,14,19,0,0,0,0,0,0,0,0,0,0,0,0,0,0,0,
0,0,0,0,19,14,4,14,19,0,0,0,0,0,0,0,0,0,0,0,0,0,0,0,
0,0,0,0,19,14,14,14,19,0,0,0,0,0,0,0,0,0,0,0,0,0,0,0,
0,0,0,0,19,14,4,14,19,0,0,0,0,0,0,0,0,0,0,0,0,0,0,0,
0,0,0,0,19,14,14,14,19,0,0,0,0,0,0,0,0,0,0,0,0,0,0,0,
0,0,0,0,19,14,4,14,19,0,0,0,0,0,0,0,0,0,0,0,0,0,0,0,
0,0,0,0,19,14,14,14,19,0,0,0,0,0,0,0,0,0,0,0,0,0,0,0,
0,0,0,0,19,14,4,14,19,0,0,0,0,0,0,0,0,0,0,0,0,0,0,0,
32,32,32,32,33,14,14,14,31,32,32,32,32,32,32,32,32,32,32,32,32,32,32,18,
14,14,14,14,14,14,4,14,14,14,14,14,14,14,14,14,14,14,14,14,14,14,14,21,
14,5,14,5,14,5,14,5,14,5,14,5,14,5,14,5,14,5,14,5,14,5,14,21,
14,14,14,14,14,14,14,14,14,14,14,14,14,14,14,14,14,14,14,14,14,14,14,21,
8,8,8,8,8,8,8,8,8,8,8,8,8,8,8,8,8,8,8,8,8,8,8,30,
0,0,0,0,0,0,0,0,0,0,0,0,0,0,0,0,0,0,0,0,0,0,0,0,
0,0,0,0,0,0,0,0,0,0,0,0,0,0,0,0,0,0,0,0,0,0,0,0
</data>
 </layer>
 <layer id="6" name="Buildings" width="24" height="16">
  <data encoding="csv">
0,0,0,0,0,0,0,0,6709,6710,6711,6712,6713,6714,6715,6716,6717,6718,6719,6720,0,0,0,0,
0,0,0,0,0,0,0,0,6769,6770,6771,6772,6773,6774,6775,6776,6777,6778,6779,6780,0,0,0,0,
0,0,0,0,0,0,0,0,6829,6830,6831,6832,6833,6834,6835,6836,6837,6838,6839,6840,0,0,0,0,
0,0,0,0,0,0,0,0,6889,6890,6891,6892,6893,6894,6895,6896,6897,6898,6899,6900,0,0,0,0,
0,0,0,0,0,0,0,0,6949,6950,6951,6952,6953,6954,6955,6956,6957,6958,6959,6960,0,0,0,0,
0,0,0,0,0,0,0,0,7009,7010,7011,7012,7013,7014,7015,7016,7017,7018,7019,7020,0,0,0,0,
0,0,0,0,0,0,0,0,7069,7070,7071,7072,7073,7074,7075,7076,7077,7078,7079,7080,0,0,0,0,
0,0,0,0,0,0,0,0,7129,7130,7131,7132,7133,7134,7135,7136,7137,7138,7139,7140,0,0,0,0,
0,0,0,0,0,0,0,0,7189,7190,7191,7192,7193,7194,7195,7196,7197,7198,7199,7200,0,0,0,0,
0,0,0,0,0,0,0,0,0,0,0,0,0,0,0,0,0,0,0,0,0,0,0,0,
0,0,0,0,0,0,0,0,0,0,0,0,0,0,0,0,0,0,0,0,0,0,0,0,
0,0,0,0,0,0,0,0,0,0,0,0,0,0,0,0,0,0,0,0,0,0,0,0,
0,0,0,0,0,0,0,0,0,0,0,0,0,0,0,0,0,0,0,0,0,0,0,0,
0,0,0,0,0,0,0,0,0,0,0,0,0,0,0,0,0,0,0,0,0,0,0,0,
0,0,0,0,0,0,0,0,0,0,0,0,0,0,0,0,0,0,0,0,0,0,0,0,
0,0,0,0,0,0,0,0,0,0,0,0,0,0,0,0,0,0,0,0,0,0,0,0
</data>
 </layer>
 <objectgroup color="#ff00ff" id="2" name="objects">
  <object id="1" name="transition" x="160" y="-40" width="200" height="40">
   <properties>
    <property name="map" value="Apartments"/>
    <property name="marker" value="entry_from_mayors"/>
   </properties>
  </object>
  <object id="2" name="transition" x="-40" y="360" width="40" height="200">
   <properties>
    <property name="map" value="School_exterior"/>
    <property name="marker" value="entry_from_mayors"/>
   </properties>
  </object>
 </objectgroup>
 <objectgroup color="#7f00ff" id="3" name="markers">
  <object id="3" name="entry_from_apartments" x="260" y="60">
   <point/>
  </object>
  <object id="14" name="entry_from_school" x="59.5" y="459">
   <point/>
  </object>
 </objectgroup>
 <objectgroup color="#0000ff" id="4" name="collision">
  <object id="5" x="0" y="-40" width="160" height="40"/>
  <object id="6" x="-40" y="-38.6667" width="40" height="398.667"/>
  <object id="7" x="-40" y="560" width="40" height="80"/>
  <object id="8" x="0" y="640" width="520" height="40"/>
  <object id="9" x="480" y="640" width="490.667" height="40"/>
  <object id="10" x="960" y="-21.3333" width="40" height="661.333"/>
  <object id="12" x="360" y="-40" width="620" height="40"/>
  <object id="13" x="360" y="0" width="400" height="240"/>
 </objectgroup>
</map>
