<?xml version="1.0" encoding="UTF-8"?>
<map version="1.11" tiledversion="1.11.2" orientation="orthogonal" renderorder="right-down" width="26" height="12" tilewidth="40" tileheight="40" infinite="0" nextlayerid="7" nextobjectid="15">
 <editorsettings>
  <export target="Police_and_sans.lua" format="lua"/>
 </editorsettings>
 <tileset firstgid="1" source="../tilesets/Hometown_exterior_tiles.tsx"/>
 <tileset firstgid="169" source="../tilesets/Hometown_exterior_objects.tsx"/>
 <layer id="1" name="Base" width="26" height="12">
  <data encoding="csv">
50,50,50,50,50,50,50,50,50,50,50,50,50,50,50,50,50,50,50,50,50,50,50,50,50,50,
50,50,50,50,50,50,50,50,50,50,50,50,50,50,50,50,50,50,50,50,50,50,50,50,50,50,
50,50,50,50,50,50,50,50,50,50,50,50,50,50,50,50,50,50,50,50,50,50,50,50,50,50,
50,50,50,50,50,50,50,50,50,50,50,50,50,50,50,50,50,50,50,50,50,50,50,50,50,50,
50,50,50,50,50,50,50,50,50,50,50,50,50,50,50,50,50,50,50,50,50,50,50,50,50,50,
50,50,50,50,50,50,50,50,50,50,50,50,50,50,50,50,50,50,50,50,50,50,50,50,50,50,
50,50,50,50,50,50,50,50,50,50,50,50,50,50,50,50,50,50,50,50,50,50,50,50,50,50,
50,50,50,50,50,50,50,50,50,50,50,50,50,50,50,50,50,50,50,50,50,50,50,50,50,50,
50,50,50,50,50,50,50,50,50,50,50,50,50,50,50,50,50,50,50,50,50,50,50,50,50,50,
50,50,50,50,50,50,50,50,50,50,50,50,50,50,50,50,50,50,50,50,50,50,50,50,50,50,
50,50,50,50,50,50,14,14,14,14,14,14,14,14,14,14,50,50,50,50,50,50,50,50,50,50,
50,50,50,50,50,50,50,50,50,50,14,14,50,14,14,50,50,50,50,50,50,50,50,50,50,50
</data>
 </layer>
 <layer id="2" name="Roads" width="26" height="12">
  <data encoding="csv">
0,0,0,0,0,0,0,0,0,0,0,0,0,0,0,0,0,0,0,0,0,0,0,0,0,0,
0,0,0,0,0,0,0,0,0,0,0,0,0,0,0,0,0,0,0,0,0,0,0,0,0,0,
0,0,0,0,0,0,0,0,0,0,0,0,0,0,0,0,0,0,0,0,0,0,0,0,0,0,
0,0,0,0,0,0,0,0,0,0,0,0,0,0,0,0,0,0,0,0,0,0,0,0,0,0,
0,0,0,0,0,0,0,0,0,0,0,0,0,0,0,0,0,0,0,0,0,0,0,0,0,0,
0,0,0,0,0,0,0,0,0,0,0,0,0,0,0,0,0,0,0,0,0,0,0,0,0,0,
17,17,17,17,17,17,17,17,17,17,17,17,17,17,17,17,17,17,17,17,17,17,17,17,17,17,
14,14,14,14,14,14,14,14,14,14,14,14,14,14,14,14,14,14,14,14,14,14,14,14,14,14,
14,5,14,5,14,5,14,5,14,5,14,5,14,5,14,5,14,5,14,5,14,5,14,5,14,5,
14,14,14,14,14,14,14,14,14,14,14,14,4,14,14,14,14,14,14,14,14,14,14,14,14,14,
29,29,29,29,29,29,29,29,29,29,9,14,14,14,7,29,29,29,29,29,29,29,29,29,29,29,
0,0,0,0,0,0,0,0,0,0,19,0,4,0,19,0,0,0,0,0,0,0,0,0,0,0
</data>
 </layer>
 <layer id="3" name="Buildings" width="26" height="12">
  <data encoding="csv">
0,5464,5465,5466,5467,5468,5469,5470,5471,5472,0,0,0,0,3485,3486,3487,3488,3489,3490,3491,3492,3493,3494,3495,3496,
0,5524,5525,5526,5527,5528,5529,5530,5531,5532,0,0,0,0,3545,3546,3547,3548,3549,3550,3551,3552,3553,3554,3555,3556,
0,5584,5585,5586,5587,5588,5589,5590,5591,5592,0,0,0,0,3605,3606,3607,3608,3609,3610,3611,3612,3613,3614,3615,3616,
0,5644,5645,5646,5647,5648,5649,5650,5651,5652,0,0,0,0,3665,3666,3667,3668,3669,3670,3671,3672,3673,3674,3675,3676,
0,5704,5705,5706,5707,5708,5709,5710,5711,5712,0,0,0,0,3725,3726,3727,3728,3729,3730,3731,3732,3733,3734,3735,3736,
0,5764,5765,5766,5767,5768,5769,5770,5771,5772,0,0,0,0,3785,3786,3787,3788,3789,3790,3791,3792,3793,3794,3795,3796,
0,0,0,0,0,0,0,0,0,0,0,0,0,0,3845,3846,3847,3848,3849,3850,3851,3852,3853,3854,3855,3856,
0,0,0,0,0,0,0,0,0,0,0,0,0,0,0,0,0,0,0,0,0,0,0,0,0,0,
0,0,0,0,0,0,0,0,0,0,0,0,0,0,0,0,0,0,0,0,0,0,0,0,0,0,
0,0,0,0,0,0,0,0,0,0,0,0,0,0,0,0,0,0,0,0,0,0,0,0,0,0,
0,0,0,0,0,0,0,0,0,0,0,0,0,0,0,0,0,0,0,0,0,0,0,0,0,0,
0,0,0,0,0,0,0,0,0,0,0,0,0,0,0,0,0,0,0,0,0,0,0,0,0,0
</data>
 </layer>
 <objectgroup color="#0000ff" id="4" name="collision">
  <object id="1" x="-40" y="440" width="40" height="40"/>
  <object id="2" x="-40" y="0" width="40" height="240"/>
  <object id="3" x="0" y="0" width="400" height="200"/>
  <object id="4" x="560" y="0" width="480" height="200"/>
  <object id="5" x="1040" y="440" width="40" height="40"/>
  <object id="6" x="1040" y="0" width="40" height="240"/>
  <object id="7" x="360" y="-40" width="240" height="40"/>
  <object id="8" x="0" y="480" width="400" height="40"/>
  <object id="9" x="600" y="480" width="440" height="40"/>
  <object id="10" x="1040" y="240" width="40" height="200"/>
 </objectgroup>
 <objectgroup color="#ff00ff" id="5" name="objects">
  <object id="11" name="transition" x="-40" y="240" width="40" height="200">
   <properties>
    <property name="map" value="Festival_pathway"/>
    <property name="marker" value="entry_from_police"/>
   </properties>
  </object>
  <object id="13" name="transition" x="400" y="480" width="200" height="40">
   <properties>
    <property name="map" value="Apartments"/>
    <property name="marker" value="entry_from_police"/>
   </properties>
  </object>
 </objectgroup>
 <objectgroup color="#7f00ff" id="6" name="markers">
  <object id="12" name="entry_from_festival_pathway" x="40" y="340">
   <point/>
  </object>
  <object id="14" name="entry_from_apartments" x="500" y="420">
   <point/>
  </object>
 </objectgroup>
</map>
