<?xml version="1.0" encoding="UTF-8"?>
<map version="1.11" tiledversion="1.11.2" orientation="orthogonal" renderorder="right-down" width="25" height="12" tilewidth="40" tileheight="40" infinite="0" nextlayerid="7" nextobjectid="18">
 <editorsettings>
  <export target="QCs_and_Asgore.lua" format="lua"/>
 </editorsettings>
 <tileset firstgid="1" source="../tilesets/Hometown_exterior_tiles.tsx"/>
 <tileset firstgid="169" source="../tilesets/Hometown_exterior_objects.tsx"/>
 <layer id="1" name="Base" width="25" height="12">
  <data encoding="csv">
50,50,50,50,50,50,50,50,50,50,50,50,50,50,50,50,50,50,50,50,50,50,50,50,50,
50,50,50,50,50,50,50,50,50,50,50,50,50,50,50,50,50,50,50,50,50,50,50,50,50,
50,50,50,50,50,50,50,50,50,50,50,50,50,50,50,50,50,50,50,50,50,50,50,50,50,
50,50,50,50,50,50,50,50,50,50,50,50,50,50,50,50,50,50,50,50,50,50,50,50,50,
50,50,50,50,50,50,50,50,50,50,50,50,50,50,50,50,50,50,50,50,50,50,50,50,50,
50,50,50,50,50,50,50,50,50,50,50,50,50,50,50,50,50,50,50,50,50,50,50,50,50,
50,50,50,50,50,50,50,50,50,50,50,50,50,50,50,50,50,50,50,50,50,50,50,50,50,
50,50,50,50,50,50,50,50,50,50,50,50,50,50,50,50,50,50,50,50,50,50,50,50,50,
50,50,50,50,50,50,50,50,50,50,50,50,50,50,50,50,50,50,50,50,50,50,50,50,50,
50,50,50,50,50,50,50,50,50,50,50,50,50,50,50,50,50,50,50,50,50,50,50,50,50,
50,50,50,50,50,50,50,50,50,50,50,50,50,50,50,50,50,50,50,50,50,50,50,50,50,
50,50,50,50,50,50,50,50,50,50,50,50,50,50,50,50,50,50,50,50,50,50,50,50,50
</data>
 </layer>
 <layer id="6" name="Roads" width="25" height="12">
  <data encoding="csv">
0,0,0,0,0,0,0,0,0,0,0,0,0,0,0,0,0,0,0,0,0,0,0,0,0,
0,0,0,0,0,0,0,0,0,0,0,0,0,0,0,0,0,0,0,0,0,0,0,0,0,
0,0,0,0,0,0,0,0,0,0,0,0,0,0,0,0,0,0,0,0,0,0,0,0,0,
0,0,0,0,0,0,0,0,0,0,0,0,0,0,0,0,0,0,0,0,0,0,0,0,0,
0,0,0,0,0,0,0,0,0,0,0,0,0,0,0,0,0,0,0,0,0,0,0,0,0,
0,0,0,0,0,0,0,0,0,0,0,0,0,0,0,0,0,0,0,0,0,0,0,0,0,
16,32,32,32,32,32,32,32,32,32,32,32,32,32,32,32,32,32,32,32,32,32,32,32,32,
19,14,14,14,14,14,14,14,14,14,14,14,14,14,14,14,14,14,14,14,14,14,14,14,14,
19,14,5,14,5,14,5,14,5,14,5,14,5,14,5,14,5,14,5,14,5,14,5,14,5,
19,14,14,14,14,14,14,14,14,14,14,14,14,14,14,14,14,14,14,14,14,14,14,14,14,
28,8,8,8,8,8,8,8,8,8,8,8,8,8,8,8,8,8,8,8,8,8,8,8,8,
0,0,0,0,0,0,0,0,0,0,0,0,0,0,0,0,0,0,0,0,0,0,0,0,0
</data>
 </layer>
 <layer id="5" name="Buildings" width="25" height="12">
  <data encoding="csv">
0,1401,1402,1403,1404,1405,1406,1407,1408,1409,1410,1411,0,4311,4312,4313,4314,4315,4316,4317,4318,4319,4320,4321,0,
0,1461,1462,1463,1464,1465,1466,1467,1468,1469,1470,1471,0,4371,4372,4373,4374,4375,4376,4377,4378,4379,4380,4381,0,
0,1521,1522,1523,1524,1525,1526,1527,1528,1529,1530,1531,0,4431,4432,4433,4434,4435,4436,4437,4438,4439,4440,4441,0,
0,1581,1582,1583,1584,1585,1586,1587,1588,1589,1590,1591,0,4491,4492,4493,4494,4495,4496,4497,4498,4499,4500,4501,0,
0,1641,1642,1643,1644,1645,1646,1647,1648,1649,1650,1651,0,4551,4552,4553,4554,4555,4556,4557,4558,4559,4560,4561,0,
0,1701,1702,1703,1704,1705,1706,1707,1708,1709,1710,1711,0,4611,4612,4613,4614,4615,4616,4617,4618,4619,4620,4621,0,
0,0,0,0,0,0,0,0,0,0,0,0,0,0,0,0,0,0,0,0,0,0,0,0,0,
0,0,0,0,0,0,0,0,0,0,0,0,0,0,0,0,0,0,0,0,0,0,0,0,0,
0,0,0,0,0,0,0,0,0,0,0,0,0,0,0,0,0,0,0,0,0,0,0,0,0,
0,0,0,0,0,0,0,0,0,0,0,0,0,0,0,0,0,0,0,0,0,0,0,0,0,
0,0,0,0,0,0,0,0,0,0,0,0,0,0,0,0,0,0,0,0,0,0,0,0,0,
0,0,0,0,0,0,0,0,0,0,0,0,0,0,0,0,0,0,0,0,0,0,0,0,0
</data>
 </layer>
 <objectgroup color="#ff00ff" id="2" name="objects">
  <object id="11" name="transition" x="1000" y="240" width="40" height="200">
   <properties>
    <property name="map" value="Apartments"/>
    <property name="marker" value="entry_from_QCs"/>
   </properties>
  </object>
 </objectgroup>
 <objectgroup color="#5500ff" id="3" name="markers">
  <object id="12" name="entry_from_apartments" x="960" y="340">
   <point/>
  </object>
 </objectgroup>
 <objectgroup color="#0000ff" id="4" name="collision">
  <object id="6" x="360" y="-40" width="640" height="40"/>
  <object id="7" x="360" y="480" width="640" height="40"/>
  <object id="8" x="-40" y="0" width="40" height="480"/>
  <object id="9" x="1000" y="440" width="40" height="40"/>
  <object id="10" x="1000" y="0" width="40" height="240"/>
  <object id="13" x="-40" y="-40" width="400" height="40"/>
  <object id="14" x="-40" y="480" width="400" height="40"/>
  <object id="16" x="40" y="0" width="440" height="240"/>
  <object id="17" x="520" y="0" width="440" height="240"/>
 </objectgroup>
</map>
