<?xml version="1.0" encoding="UTF-8"?>
<map version="1.11" tiledversion="1.11.2" orientation="orthogonal" renderorder="right-down" width="16" height="16" tilewidth="40" tileheight="40" infinite="0" nextlayerid="9" nextobjectid="50">
 <editorsettings>
  <export target="School_exterior.lua" format="lua"/>
 </editorsettings>
 <tileset firstgid="1" source="../tilesets/Hometown_exterior_tiles.tsx"/>
 <tileset firstgid="169" source="../tilesets/Hometown_exterior_objects.tsx"/>
 <layer id="1" name="Base" width="16" height="16">
  <data encoding="csv">
50,50,50,50,50,50,50,50,50,50,50,50,50,50,50,50,
50,50,50,50,50,50,50,50,50,50,50,50,50,50,50,50,
50,50,50,50,50,50,50,50,50,50,50,50,50,50,50,50,
50,50,50,50,50,50,50,50,50,50,50,50,50,50,50,50,
50,50,50,50,50,50,50,50,50,50,50,50,50,50,50,50,
50,50,50,50,50,50,50,50,50,50,50,50,50,50,50,50,
50,50,50,50,50,50,50,50,50,50,50,50,50,50,50,50,
50,50,50,50,50,50,50,50,50,50,50,50,50,50,50,50,
50,50,50,50,50,50,50,50,50,50,50,50,50,50,50,50,
50,50,50,50,50,50,50,50,50,50,50,50,50,50,50,50,
50,50,50,50,50,50,50,50,50,50,50,50,50,50,50,50,
50,50,50,50,50,50,50,50,50,50,50,50,50,50,50,50,
50,50,50,50,50,50,50,50,50,50,50,50,50,50,50,50,
50,50,50,50,50,50,50,50,50,50,50,50,50,50,50,50,
50,50,50,50,50,50,50,50,50,50,50,50,50,50,50,50,
50,50,50,50,50,50,50,50,50,50,50,50,50,50,50,50
</data>
 </layer>
 <layer id="7" name="Roads" width="16" height="16">
  <data encoding="csv">
0,0,0,0,0,0,0,0,0,0,0,0,0,0,0,0,
0,0,0,0,0,0,0,0,0,0,0,0,0,0,0,0,
0,0,0,0,0,0,0,0,0,0,0,0,0,0,0,0,
0,0,0,0,0,0,0,0,0,0,0,0,0,0,0,0,
0,0,0,0,0,0,0,0,0,0,0,0,0,0,0,0,
0,0,0,0,0,0,0,0,0,0,0,0,0,0,0,0,
0,0,0,0,0,0,0,0,0,0,0,0,0,0,0,0,
0,0,0,0,0,0,0,0,0,0,0,0,0,0,0,0,
0,0,0,0,0,0,0,0,0,0,0,0,0,0,0,0,
17,17,17,17,17,17,17,17,17,17,17,17,17,17,17,17,
14,14,14,14,14,14,14,14,14,14,14,14,14,14,14,14,
14,5,14,5,14,5,14,5,14,5,14,5,14,5,14,5,
14,14,14,14,14,14,14,14,14,14,14,14,14,14,14,14,
8,8,8,8,8,8,8,8,8,8,8,8,8,8,8,8,
0,0,0,0,0,0,0,0,0,0,0,0,0,0,0,0,
0,0,0,0,0,0,93,94,93,93,94,93,93,94,93,94
</data>
 </layer>
 <layer id="6" name="School" width="16" height="16" offsetx="2" offsety="0">
  <data encoding="csv">
5550,5551,5552,5553,5554,5555,5556,5557,5558,5559,5560,5561,5562,5563,5564,5565,
5610,5611,5612,5613,5614,5615,5616,5617,5618,5619,5620,5621,5622,5623,5624,5625,
5670,5671,5672,5673,5674,5675,5676,5677,5678,5679,5680,5681,5682,5683,5684,5685,
5730,5731,5732,5733,5734,5735,5736,5737,5738,5739,5740,5741,5742,5743,5744,5745,
5790,5791,5792,5793,5794,5795,5796,5797,5798,5799,5800,5801,5802,5803,5804,5805,
5850,5851,5852,5853,5854,5855,5856,5857,5858,5859,5860,5861,5862,5863,5864,5865,
5910,5911,5912,5913,5914,5915,5916,5917,5918,5919,5920,5921,5922,5923,5924,5925,
5970,5971,5972,5973,5974,5975,5976,5977,5978,5979,5980,5981,5982,5983,5984,5985,
6030,6031,6032,6033,6034,6035,6036,6037,6038,6039,6040,6041,6042,6043,6044,6045,
0,0,0,0,0,0,0,0,0,0,0,0,0,0,0,0,
0,0,0,0,0,0,0,0,0,0,0,0,0,0,0,0,
0,0,0,0,0,0,0,0,0,0,0,0,0,0,0,0,
0,0,0,0,0,0,0,0,0,0,0,0,0,0,0,0,
0,0,0,0,0,0,0,0,0,0,0,0,0,0,0,0,
0,0,0,0,0,0,0,0,0,0,0,0,0,0,0,0,
0,0,0,0,0,0,0,0,0,0,0,0,0,0,0,0
</data>
 </layer>
 <layer id="8" name="Trees" width="16" height="16">
  <data encoding="csv">
0,0,0,0,0,0,0,0,0,0,0,0,0,0,0,0,
0,0,0,0,0,0,0,0,0,0,0,0,0,0,0,0,
0,0,0,0,0,0,0,0,0,0,0,0,0,0,0,0,
0,0,0,0,0,0,0,0,0,0,0,0,0,0,0,0,
0,0,0,0,0,0,0,0,0,0,0,0,0,0,0,0,
95,96,0,0,0,0,0,0,0,0,0,0,0,0,0,0,
107,108,0,0,0,0,0,0,0,0,0,0,0,0,0,0,
131,132,0,0,0,0,0,0,0,0,0,0,0,0,0,0,
143,144,0,0,0,0,0,0,0,0,0,0,0,0,0,0,
0,0,0,0,0,0,0,0,0,0,0,0,0,0,0,0,
0,0,0,0,0,0,0,0,0,0,0,0,0,0,0,0,
0,0,0,0,0,0,0,0,0,0,0,0,0,0,0,0,
0,0,0,0,0,0,0,0,0,0,0,0,0,0,0,0,
0,0,0,0,0,0,0,0,0,0,0,0,0,0,0,0,
0,0,0,0,0,0,0,0,0,0,0,0,0,0,0,0,
94,95,96,0,0,92,93,94,95,93,94,95,93,94,95,94
</data>
 </layer>
 <objectgroup color="#ff00ff" id="2" name="objects">
  <object id="12" name="transition" x="120" y="640" width="80" height="40">
   <properties>
    <property name="map" value="Bunker_surface"/>
    <property name="marker" value="entry"/>
   </properties>
  </object>
  <object id="37" name="transition" x="-40" y="200" width="40" height="400">
   <properties>
    <property name="map" value="Church_exterior"/>
    <property name="marker" value="entry_from_school"/>
   </properties>
  </object>
  <object id="48" name="transition" x="640" y="360" width="40" height="200">
   <properties>
    <property name="map" value="Mayors_exterior"/>
    <property name="marker" value="entry_from_school"/>
   </properties>
  </object>
 </objectgroup>
 <objectgroup color="#7f00ff" id="3" name="markers">
  <object id="2" name="entry_from_bunker" x="160" y="620">
   <point/>
  </object>
  <object id="38" name="entry_from_church" x="40" y="460">
   <point/>
  </object>
  <object id="45" name="entry_from_mayors" x="600" y="460">
   <point/>
  </object>
 </objectgroup>
 <objectgroup color="#0000ff" id="5" name="collision">
  <object id="5" x="0" y="640" width="120" height="40"/>
  <object id="6" x="200" y="637.9" width="442" height="44.2"/>
  <object id="9" x="80" y="-40" width="600" height="40"/>
  <object id="10" x="-40" y="-40" width="120" height="40"/>
  <object id="14" x="640" y="0" width="40" height="160"/>
  <object id="15" x="-40" y="0" width="40" height="160"/>
  <object id="20" x="-40" y="600" width="40" height="40"/>
  <object id="22" x="-40" y="120" width="720" height="80"/>
  <object id="23" x="80" y="200" width="80" height="40"/>
  <object id="24" x="160" y="240" width="120" height="40"/>
  <object id="25" x="400" y="200" width="240" height="80"/>
  <object id="39" x="0" y="200" width="80" height="120"/>
  <object id="40" x="0" y="320" width="40" height="40"/>
  <object id="41" x="0" y="600" width="120" height="40"/>
  <object id="42" x="200" y="600" width="440" height="40"/>
  <object id="46" x="640" y="560" width="40" height="80"/>
  <object id="47" x="640" y="200" width="40" height="160"/>
  <object id="49" x="200" y="200" width="80" height="40"/>
 </objectgroup>
</map>
